X:1
T: Miss Campbell of Saddell's Strathspey
C:
R:Strathspey
Q: 128
K:Bb
M:4/4
L:1/16
|:dc|Bd3 d3c B3A B4|G2ed c3B AF3 F3c|d3e d3c B3A BF3|G3E C3F DB,3 B,3F|
Bd3 d3c B3A B4|G2ed c3B AF3 F3c|d3e d3c B3A BF3|G3E C3F DB,3 B,2Bc|
d3B g3e c2de f3d|B3G edcB AF3 F3B|G3E c3E F2GA B3D|E2FG F3E DB,3 B,2Bc|
dB3 g3e cA3 f3d|BG3 c3B AF3 F3B|GE3 g3e f3A B3F|G3E C3F DB,3 B,2:|
